dist/svg/ac-line.svg

<svg xmlns="http://www.w3.org/2000/svg" viewBox="0 0 24 24"><path d="M4.617 2.283q-.873.101-1.552.781a2.74 2.74 0 0 0-.696 1.116l-.109.32v6l.109.32c.151.445.362.783.695 1.116.335.334.675.546 1.116.693.314.104.344.107 1.559.122 1.36.018 1.449.007 1.688-.202a.716.716 0 0 0 .06-1.043c-.23-.243-.236-.244-1.587-.266-1.151-.019-1.253-.026-1.42-.104a1.45 1.45 0 0 1-.607-.608l-.093-.188V4.66l.093-.188a1.43 1.43 0 0 1 .599-.599l.188-.093h14.68l.188.093c.239.118.481.36.599.599l.093.188v5.68l-.093.188a1.45 1.45 0 0 1-.607.608c-.167.078-.269.085-1.42.104-1.351.022-1.357.023-1.587.266a.716.716 0 0 0 .06 1.043c.239.209.328.22 1.688.202 1.215-.015 1.245-.018 1.559-.122a2.7 2.7 0 0 0 1.116-.693c.333-.333.544-.671.695-1.116l.109-.32v-6l-.109-.32a2.74 2.74 0 0 0-.696-1.116c-.472-.471-.961-.709-1.606-.783-.426-.049-14.293-.047-14.712.002M5.805 7.28c-.391.092-.633.519-.524.924.059.218.288.453.5.511.225.063 12.213.063 12.438 0a.84.84 0 0 0 .306-.191.739.739 0 0 0-.348-1.246c-.194-.045-12.181-.043-12.372.002m4.615 3.98a2 2 0 0 1-.149.037c-.147.032-.39.251-.457.411-.043.104-.054.632-.054 2.703 0 2.587-.015 2.907-.146 3.161-.101.195-.341.43-.551.539-.172.089-.267.107-.623.12-.4.015-.43.011-.638-.099a.99.99 0 0 1-.528-.73c-.113-.641.137-1.076.656-1.141a3 3 0 0 0 .333-.065c.24-.074.498-.441.496-.705-.002-.252-.247-.596-.492-.688-.286-.109-.911-.01-1.323.208-.313.165-.767.619-.931.929-.211.401-.264.682-.243 1.3.022.658.104.945.393 1.377.243.362.558.652.913.837.382.2.647.268 1.145.294.963.05 1.704-.244 2.33-.927.291-.318.504-.712.61-1.125.075-.293.079-.453.079-3.08 0-1.86-.014-2.808-.043-2.883a.9.9 0 0 0-.357-.391c-.108-.055-.355-.104-.42-.082m3.4.016a.73.73 0 0 0-.54.525c-.029.107-.039 1.363-.031 3.928l.011 3.771.109.32c.151.445.362.783.695 1.116.335.335.675.546 1.116.692.289.096.38.107.94.109.493.002.669-.012.86-.071.41-.125.7-.305 1.041-.645.506-.507.687-.926.727-1.683.029-.555-.029-.907-.214-1.292a2.11 2.11 0 0 0-1.847-1.166.746.746 0 0 0-.696 1.048c.106.241.3.382.593.434.343.06.449.112.559.273.086.127.097.187.097.516 0 .419-.044.559-.245.788-.206.235-.387.299-.843.3-.294.001-.442-.019-.605-.08-.258-.096-.542-.362-.674-.63l-.093-.189-.02-3.78c-.021-4.035-.012-3.849-.215-4.074a.79.79 0 0 0-.725-.21" fill-rule="evenodd"/></svg>

<svg fill="none" xmlns="http://www.w3.org/2000/svg" viewBox="0 0 24 24"><path d="M4.617 2.283 C 4.034 2.351,3.519 2.610,3.065 3.064 C 2.732 3.396,2.521 3.735,2.369 4.180 L 2.260 4.500 2.260 7.500 L 2.260 10.500 2.369 10.820 C 2.520 11.265,2.731 11.603,3.064 11.936 C 3.399 12.270,3.739 12.482,4.180 12.629 C 4.494 12.733,4.524 12.736,5.739 12.751 C 7.099 12.769,7.188 12.758,7.427 12.549 C 7.745 12.269,7.772 11.807,7.487 11.506 C 7.257 11.263,7.251 11.262,5.900 11.240 C 4.749 11.221,4.647 11.214,4.480 11.136 C 4.251 11.030,3.992 10.769,3.873 10.528 L 3.780 10.340 3.780 7.500 L 3.780 4.660 3.873 4.472 C 3.991 4.233,4.233 3.991,4.472 3.873 L 4.660 3.780 12.000 3.780 L 19.340 3.780 19.528 3.873 C 19.767 3.991,20.009 4.233,20.127 4.472 L 20.220 4.660 20.220 7.500 L 20.220 10.340 20.127 10.528 C 20.008 10.769,19.749 11.030,19.520 11.136 C 19.353 11.214,19.251 11.221,18.100 11.240 C 16.749 11.262,16.743 11.263,16.513 11.506 C 16.228 11.807,16.255 12.269,16.573 12.549 C 16.812 12.758,16.901 12.769,18.261 12.751 C 19.476 12.736,19.506 12.733,19.820 12.629 C 20.261 12.482,20.601 12.270,20.936 11.936 C 21.269 11.603,21.480 11.265,21.631 10.820 L 21.740 10.500 21.740 7.500 L 21.740 4.500 21.631 4.180 C 21.479 3.735,21.268 3.396,20.935 3.064 C 20.463 2.593,19.974 2.355,19.329 2.281 C 18.903 2.232,5.036 2.234,4.617 2.283 M5.805 7.280 C 5.414 7.372,5.172 7.799,5.281 8.204 C 5.340 8.422,5.569 8.657,5.781 8.715 C 6.006 8.778,17.994 8.778,18.219 8.715 C 18.307 8.691,18.444 8.605,18.525 8.524 C 18.938 8.111,18.742 7.409,18.177 7.278 C 17.983 7.233,5.996 7.235,5.805 7.280 M10.420 11.260 C 10.398 11.267,10.331 11.284,10.271 11.297 C 10.124 11.329,9.881 11.548,9.814 11.708 C 9.771 11.812,9.760 12.340,9.760 14.411 C 9.760 16.998,9.745 17.318,9.614 17.572 C 9.513 17.767,9.273 18.002,9.063 18.111 C 8.891 18.200,8.796 18.218,8.440 18.231 C 8.040 18.246,8.010 18.242,7.802 18.132 C 7.514 17.981,7.332 17.729,7.274 17.402 C 7.161 16.761,7.411 16.326,7.930 16.261 C 8.046 16.246,8.195 16.217,8.263 16.196 C 8.503 16.122,8.761 15.755,8.759 15.491 C 8.757 15.239,8.512 14.895,8.267 14.803 C 7.981 14.694,7.356 14.793,6.944 15.011 C 6.631 15.176,6.177 15.630,6.013 15.940 C 5.802 16.341,5.749 16.622,5.770 17.240 C 5.792 17.898,5.874 18.185,6.163 18.617 C 6.406 18.979,6.721 19.269,7.076 19.454 C 7.458 19.654,7.723 19.722,8.221 19.748 C 9.184 19.798,9.925 19.504,10.551 18.821 C 10.842 18.503,11.055 18.109,11.161 17.696 C 11.236 17.403,11.240 17.243,11.240 14.616 C 11.240 12.756,11.226 11.808,11.197 11.733 C 11.146 11.597,10.977 11.412,10.840 11.342 C 10.732 11.287,10.485 11.238,10.420 11.260 M13.820 11.276 C 13.550 11.343,13.351 11.537,13.280 11.801 C 13.251 11.908,13.241 13.164,13.249 15.729 L 13.260 19.500 13.369 19.820 C 13.520 20.265,13.731 20.603,14.064 20.936 C 14.399 21.271,14.739 21.482,15.180 21.628 C 15.469 21.724,15.560 21.735,16.120 21.737 C 16.613 21.739,16.789 21.725,16.980 21.666 C 17.390 21.541,17.680 21.361,18.021 21.021 C 18.527 20.514,18.708 20.095,18.748 19.338 C 18.777 18.783,18.719 18.431,18.534 18.046 C 18.204 17.358,17.447 16.880,16.687 16.880 C 16.134 16.880,15.770 17.429,15.991 17.928 C 16.097 18.169,16.291 18.310,16.584 18.362 C 16.927 18.422,17.033 18.474,17.143 18.635 C 17.229 18.762,17.240 18.822,17.240 19.151 C 17.240 19.570,17.196 19.710,16.995 19.939 C 16.789 20.174,16.608 20.238,16.152 20.239 C 15.858 20.240,15.710 20.220,15.547 20.159 C 15.289 20.063,15.005 19.797,14.873 19.529 L 14.780 19.340 14.760 15.560 C 14.739 11.525,14.748 11.711,14.545 11.486 C 14.381 11.305,14.068 11.215,13.820 11.276 " stroke="none" fill-rule="evenodd" fill="currentColor"/></svg>
